X: 401
M: C
L: 1/8
K: D
V: 1
|: A |\
defd gfec | defd eAcA |\
defd gfeg | (f/g/a) (.A.c) d2d :|
V: 2 clef=bass middle=d
z |\
d2d2 G2G2 | d2d2 A2A2 |\
d2d2 G2G2 | A2A2 D2D :|\
|: z |
d2d2 A2A2 | d2d2 A2A2 |\
d2d2 g2g2 | a2a2 d2d :|

